X:1
T:Welcome Here
T:Welcome Here
T:Solomon W. Straub
T:Maria Straub, 1880
T:Public Domain Courtesy of the Cyber Hymnal™
C:Solomon W. Straub
Z:Public Domain
Z:Courtesy of the Cyber Hymnal™
%%score ( 1 2 ) 3
L:1/8
Q:1/4=95
M:2/4
K:F
V:1 treble 
V:2 treble 
V:3 bass 
V:1
 C | [CF][FA] [FA][FA] | [FA]3 [Ac] | [Ac][GB] [GB][FA] | [FA][EG] [EG][CF] | [CE][EG] [EG][EG] | %6
w: 1.~Come,|join our throng to-|day, Come|child- ren, come to|Sab- bath School; We|learn to sing and|
w: 2.~Come,|join with us to|read The|Bi- ble, Word of|God to man; Its|les- sons all we’ll|
w: 3.~Come,|wan- d’rer, join us|here, The|Mas- ter, too, is|call- ing thee; Oh|heed your Sav- ior|
 [EG]2 z [Fc] | [FA][FA] [EG][EG] | F2 z2 ||"^Refrain" [FA] | [Fc]3 [EB] | [FA]2 z [Ac] | %12
w: pray, Our|rule the gold- en|rule.||||
w: need, They|teach sal- va- tion’s|plan.|Oh,|wel- come|here, This|
w: dear, He|says, “Come learn of|Me.”||||
 [Af][Ac] [Ac][FA] | [FA][EG] [EG][CF] | [CE][EG] [EG][EG] | [EG]2 z [Fc] | [FA][FA] [EG][EG] | %17
w: |||||
w: bright and ho- ly|Sab- bath day, Come|join us in a|song, This|ho- ly Sab- bath|
w: |||||
 F3 |] %18
w: |
w: day.|
w: |
V:2
 C | x4 | x4 | x4 | x4 | x4 | x4 | x4 | F2 x2 || x | x4 | x4 | x4 | x4 | x4 | x4 | x4 | F3 |] %18
V:3
 [F,A,] | [F,A,][F,C] [F,C][F,C] | [F,C]3 [F,C] | [C,C][C,C] [C,C][C,C] | [C,C][C,C] [C,C][C,A,] | %5
 [C,G,][C,C] [C,C][C,C] | [C,C]2 z [A,,C] | [C,C][C,C] [C,B,][C,B,] | [F,A,]2 z2 || [F,C] | %10
 [A,C]3 [G,C] | [F,C]2 z [F,C] | [F,C][F,F] [F,F][F,C] | [C,C][C,C] [C,C][C,A,] | %14
 [C,G,][C,C] [C,C][C,C] | [C,C]2 z [A,,C] | [C,C][C,C] [C,B,][C,B,] | [F,A,]3 |] %18

